X: 16185
T: Green Pigeon, The
R: reel
M: 4/4
K: Dmajor
D3F GFED|FDAF G3E|FDAF GFED|dAcA G3B|
DFFD GFED|FDAF G3E|FAAF G3B|dBcA G3B|
A3B c3B|AFAB cAed|c2AB cAGE|d2cA G3B|
A3B c3B|AFAB cde2|~f3d ~e3c|dcAF G3E|

